icons/desktop/20/calendar-20.svg

<svg width="20" height="20" viewBox="0 0 20 20" fill="none" xmlns="http://www.w3.org/2000/svg">
<path fill-rule="evenodd" clip-rule="evenodd" d="M14.875 1C15.358 1 15.75 1.392 15.75 1.875V3.41699C15.8491 3.4314 15.9489 3.44465 16.0488 3.45996C17.4506 3.67488 18.4998 4.88174 18.5 6.30762V15.6943C18.4998 17.0964 17.4892 18.3188 16.0811 18.5352C14.3116 18.8071 12.2677 19 10 19C8.27532 19 6.22812 18.8887 3.95117 18.54C2.54937 18.3251 1.50019 17.1183 1.5 15.6924V6.30566C1.50016 4.90357 2.51077 3.68123 3.91895 3.46484C4.02818 3.44806 4.13869 3.43315 4.25 3.41699V1.875C4.25 1.392 4.642 1 5.125 1C5.608 1 6 1.392 6 1.875V3.2002C7.23642 3.07595 8.57396 3 10 3C11.19 3 12.5334 3.05476 14 3.20215V1.875C14 1.392 14.392 1 14.875 1ZM3.25 15.6924C3.25019 16.2461 3.66099 16.7254 4.2168 16.8105C6.39368 17.1438 8.35079 17.25 10 17.25C12.1683 17.25 14.1229 17.0648 15.8154 16.8047C16.3468 16.7229 16.7498 16.2558 16.75 15.6943V9.75H3.25V15.6924ZM10 4.75C7.83174 4.75 5.8771 4.93522 4.18457 5.19531C3.65322 5.27711 3.25016 5.74422 3.25 6.30566V8H16.75V6.30762C16.7498 5.75392 16.339 5.27461 15.7832 5.18945C13.6063 4.85615 11.6492 4.75 10 4.75Z" fill="black"/>
</svg>

<!-- This Source Code Form is subject to the terms of the Mozilla Public
   - License, v. 2.0. If a copy of the MPL was not distributed with this
   - file, You can obtain one at http://mozilla.org/MPL/2.0/. -->
<svg xmlns="http://www.w3.org/2000/svg" width="20" height="20" fill="context-fill" fill-opacity="context-fill-opacity" viewBox="0 0 20 20">
    <path fill-rule="evenodd" d="M14.875 1c.483 0 .875.392.875.875v1.542l.299.043A2.89 2.89 0 0 1 18.5 6.308v9.386c0 1.402-1.01 2.625-2.419 2.841a40 40 0 0 1-12.13.005A2.89 2.89 0 0 1 1.5 15.692V6.306c0-1.402 1.01-2.625 2.419-2.841q.165-.025.331-.048V1.875a.875.875 0 0 1 1.75 0V3.2a40 40 0 0 1 8 .002V1.875c0-.483.392-.875.875-.875M3.25 15.692c0 .554.411 1.033.967 1.119a38.2 38.2 0 0 0 11.598-.006c.532-.082.935-.55.935-1.11V9.75H3.25zM10 4.75c-2.168 0-4.123.185-5.815.445a1.116 1.116 0 0 0-.935 1.11V8h13.5V6.308c0-.554-.411-1.033-.967-1.119A38 38 0 0 0 10 4.75" clip-rule="evenodd" />
</svg>
